src/outline/general/keyboard.svg

<svg xmlns="http://www.w3.org/2000/svg" width="24" height="24" fill="none" viewBox="0 0 24 24">
  <path stroke="currentColor" stroke-linecap="square" stroke-width="2" d="M8 15h7.01v.01H15L8 15Z"/>
  <path stroke="currentColor" stroke-linecap="square" stroke-width="2" d="M20 6H4a1 1 0 0 0-1 1v10a1 1 0 0 0 1 1h16a1 1 0 0 0 1-1V7a1 1 0 0 0-1-1Z"/>
  <path stroke="currentColor" stroke-linecap="square" stroke-width="2" d="M6 9h.01v.01H6V9Zm0 3h.01v.01H6V12Zm0 3h.01v.01H6V15Zm3-6h.01v.01H9V9Zm0 3h.01v.01H9V12Zm3-3h.01v.01H12V9Zm0 3h.01v.01H12V12Zm3 0h.01v.01H15V12Zm3 0h.01v.01H18V12Zm0 3h.01v.01H18V15Zm-3-6h.01v.01H15V9Zm3 0h.01v.01H18V9Z"/>
</svg>

<svg xmlns="http://www.w3.org/2000/svg" width="24" height="24" fill="none" viewBox="0 0 24 24">
  <path stroke="currentColor" stroke-linecap="square" stroke-width="2" d="M8 15h7v0h0-7Zm12-9H4a1 1 0 0 0-1 1v10c0 .6.4 1 1 1h16c.6 0 1-.4 1-1V7c0-.6-.4-1-1-1ZM6 9h0v0h0v0Zm0 3h0v0h0v0Zm0 3h0v0h0v0Zm3-6h0v0h0v0Zm0 3h0v0h0v0Zm3-3h0v0h0v0Zm0 3h0v0h0v0Zm3 0h0v0h0v0Zm3 0h0v0h0v0Zm0 3h0v0h0v0Zm-3-6h0v0h0v0Zm3 0h0v0h0v0Z"/>
</svg>
